!!!OTL-incipit: MEINST DU DENN ICH SOLL MICH KRAENKEN UEBER DEINE FALSCHE TREU
!!!ARE: Europa, Mitteleuropa, Deutschland, Rheinpfalz
!!!SCT: Z0268
!!!TXL: @@DE
!!!YEM: Copyright 1995, estate of Helmut Schaffrath.
**kern	**text
*ICvox	*
*M3/4	*
*k[f#c#]	*
*D:	*
!LO:TX:a:t=Jn der Rheinpfalʒ geſungen.	!
{8f#	Meinſt
8g	du
=1	=1
4.a	denn,
8f#	ich
8b/	ſoll
8a	mich
=2	=2
8aL	krän-
8c#J	.
4e}	-ken
{8e	ü-
8f#	-ber
=3	=3
4.g	dei-
8e	-ne
8a	fal-
8g	-ſche
=4	=4
2f#}	Treu;
{8f#	a-
8g	-ber
=5	=5
4.a	nein,
8f#	ich
8b/	thu
8a	mir's
=6	=6
8aL	den-
8c#J	.
4e}	-ken,
{8e	daß
8f#	es
=7	=7
4.g	ſo
8e	ge-
8a	-ſcheidter
8c#	.
=8	=8
2d}	ſey.
{8f#	A-
8a	-i,
=9	=9
8a	a-
8gg	.
4ee	-i,
8cc#L	a-
8aJ	-i,
=10	=10
8a	a-
8ff#	.
4dd}	-i,
{8ddL	a-
8f#J	-i,
=11	=11
8a	a-
8gg	.
4ee	-i,
8cc#L	a-
8aJ	-i,
=12	=12
8a	a-
8ff#	.
4dd}	-i,
{8ddL	a-
8f#J	-i,
=13	=13
8a	a-
8gg	.
4ee	-i,
8cc#L	a-
8aJ	-i,
=14	=14
8a	a-
8ff#	.
4dd}	-i,
{8ddL	a-
8f#J	-i,
=15	=15
8a	a-
8gg	.
4ee	-i,
8aL	a-
8ff#J	-i,
=16	=16
2dd}	ai.
==	==
!!!AGN: Lyrisches Lied, Romanze
!! Die letzten 8 Takte werden auf die Silbe 'ai' gesungen.
!!!ONB: ESAC (Essen Associative Code) Database: ZUCCAL
!!!AMT: simple triple
!!!AIN: vox
!!!EED: Helmut Schaffrath
!!!EEV: 1.0
!!!GTL: IV. Lyrische Lieder.
!!!URL-scan: https://www.digitale-sammlungen.de/de/view/bsb11160571?page=488
!!!ENC: Anna Maria Matuszewska
!!!EEV: 2025/01/30
*-	*-
